Dominus_Dark_Funeral/scalable/emblems/emblem-web.svg

<svg xmlns="http://www.w3.org/2000/svg" width="24" height="24"><path d="M18.66 1.84C16.98.75 14.67.2 11.8.2S6.62.75 4.94 1.84c-2.02 1.31-3.09 3.4-3.09 6.04 0 3.56 2.86 8.32 3.74 9.69 1 1.57 2.09 3 3.07 4.02 1.25 1.3 2.25 1.9 3.14 1.9.89 0 1.89-.6 3.14-1.9A26.82 26.82 0 0 0 18 17.57c.88-1.37 3.74-6.13 3.74-9.69 0-2.64-1.07-4.73-3.09-6.04z" fill="#483737"/><path d="M11.81 2.63a6.98 6.98 0 0 0-6.64 4.82c0 .03-.02.05-.03.08a6.97 6.97 0 0 0 13.3 4.2 6.97 6.97 0 0 0-6.63-9.11zm-.5 1.08v2.34c-.67-.02-1.3-.1-1.9-.2l.29-.59c.47-.84 1.03-1.36 1.61-1.55zm1 .04l.16.02c.52.23 1.03.73 1.45 1.49.1.18.19.37.28.57-.59.12-1.23.2-1.9.22v-2.3zm-3.13.48a5.67 5.67 0 0 0-.75 1.38c-.29-.08-.56-.18-.8-.28.45-.45.97-.82 1.55-1.1zm5.36.15c.28.1.49.2.7.31.26.19.51.4.74.61-.25.11-.51.2-.8.3a7.54 7.54 0 0 0-.64-1.22zm2.1 1.67a5.9 5.9 0 0 1 1.13 3.03H15.9c-.03-.9-.17-1.76-.4-2.54.4-.12.78-.26 1.12-.42l.02-.07zm-9.7.07c.36.17.76.3 1.17.43-.21.78-.35 1.63-.39 2.53H5.85a5.9 5.9 0 0 1 1.1-2.96zm7.6.66c.19.7.32 1.48.36 2.3h-2.6V7.04c.8-.03 1.54-.11 2.23-.26zm-5.46.02c.7.14 1.45.22 2.23.24v2.04H8.72c.04-.82.17-1.6.36-2.28zm-3.23 3.28h1.87a11 11 0 0 0 .41 2.6c-.4.11-.8.25-1.14.41a5.9 5.9 0 0 1-1.14-3.01zm2.87 0h2.59v2.1c-.78.03-1.52.11-2.21.25-.2-.7-.34-1.5-.38-2.35zm3.59 0h2.59c-.04.85-.18 1.65-.39 2.36-.68-.14-1.43-.22-2.2-.25v-2.11zm3.58 0h1.88a5.9 5.9 0 0 1-1.15 3.04c-.35-.17-.73-.3-1.14-.43.23-.8.38-1.68.41-2.61zm-4.58 3.1v2.27c-.58-.2-1.14-.71-1.61-1.55-.1-.16-.18-.34-.26-.52.59-.11 1.21-.18 1.87-.2zm1 0c.65.03 1.28.1 1.86.2-.08.19-.16.36-.25.52-.47.84-1.03 1.36-1.61 1.55v-2.27zm-3.85.43a7.5 7.5 0 0 0 .71 1.3 5.97 5.97 0 0 1-1.49-1.03c.24-.1.5-.19.78-.27zm6.7.02c.27.08.52.17.76.27-.43.41-.93.76-1.47 1.02a5.9 5.9 0 0 0 .7-1.3z" fill="#fff" fill-rule="evenodd"/></svg>

<?xml version="1.0" encoding="UTF-8" standalone="no"?>
<svg
   xmlns:dc="http://purl.org/dc/elements/1.1/"
   xmlns:cc="http://creativecommons.org/ns#"
   xmlns:rdf="http://www.w3.org/1999/02/22-rdf-syntax-ns#"
   xmlns:svg="http://www.w3.org/2000/svg"
   xmlns="http://www.w3.org/2000/svg"
   xmlns:sodipodi="http://sodipodi.sourceforge.net/DTD/sodipodi-0.dtd"
   xmlns:inkscape="http://www.inkscape.org/namespaces/inkscape"
   width="24"
   height="24"
   version="1.1"
   id="svg6"
   sodipodi:docname="emblem-web.svg"
   inkscape:version="0.92.4 (5da689c313, 2019-01-14)">
  <metadata
     id="metadata12">
    <rdf:RDF>
      <cc:Work
         rdf:about="">
        <dc:format>image/svg+xml</dc:format>
        <dc:type
           rdf:resource="http://purl.org/dc/dcmitype/StillImage" />
        <dc:title></dc:title>
      </cc:Work>
    </rdf:RDF>
  </metadata>
  <defs
     id="defs10" />
  <sodipodi:namedview
     pagecolor="#ffffff"
     bordercolor="#666666"
     borderopacity="1"
     objecttolerance="10"
     gridtolerance="10"
     guidetolerance="10"
     inkscape:pageopacity="0"
     inkscape:pageshadow="2"
     inkscape:window-width="1112"
     inkscape:window-height="480"
     id="namedview8"
     showgrid="false"
     inkscape:zoom="9.8333333"
     inkscape:cx="1.0677966"
     inkscape:cy="12"
     inkscape:window-x="0"
     inkscape:window-y="25"
     inkscape:window-maximized="0"
     inkscape:current-layer="svg6" />
  <path
     d="M 18.66,1.84 C 16.98,0.75 14.67,0.2 11.8,0.2 8.93,0.2 6.62,0.75 4.94,1.84 2.92,3.15 1.85,5.24 1.85,7.88 c 0,3.56 2.86,8.32 3.74,9.69 1,1.57 2.09,3 3.07,4.02 1.25,1.3 2.25,1.9 3.14,1.9 0.89,0 1.89,-0.6 3.14,-1.9 A 26.82,26.82 0 0 0 18,17.57 c 0.88,-1.37 3.74,-6.13 3.74,-9.69 0,-2.64 -1.07,-4.73 -3.09,-6.04 z"
     id="path2"
     inkscape:connector-curvature="0"
     style="fill:#483737" />
  <path
     d="M 11.81,2.63 A 6.98,6.98 0 0 0 5.17,7.45 c 0,0.03 -0.02,0.05 -0.03,0.08 a 6.9737006,6.9737006 0 0 0 13.3,4.2 6.97,6.97 0 0 0 -6.63,-9.11 z m -0.5,1.08 V 6.05 C 10.64,6.03 10.01,5.95 9.41,5.85 L 9.7,5.26 C 10.17,4.42 10.73,3.9 11.31,3.71 Z m 1,0.04 0.16,0.02 c 0.52,0.23 1.03,0.73 1.45,1.49 0.1,0.18 0.19,0.37 0.28,0.57 -0.59,0.12 -1.23,0.2 -1.9,0.22 V 3.75 Z M 9.18,4.23 A 5.67,5.67 0 0 0 8.43,5.61 C 8.14,5.53 7.87,5.43 7.63,5.33 8.08,4.88 8.6,4.51 9.18,4.23 Z m 5.36,0.15 c 0.28,0.1 0.49,0.2 0.7,0.31 0.26,0.19 0.51,0.4 0.74,0.61 -0.25,0.11 -0.51,0.2 -0.8,0.3 A 7.54,7.54 0 0 0 14.54,4.38 Z m 2.1,1.67 a 5.9,5.9 0 0 1 1.13,3.03 H 15.9 C 15.87,8.18 15.73,7.32 15.5,6.54 15.9,6.42 16.28,6.28 16.62,6.12 Z M 6.94,6.12 C 7.3,6.29 7.7,6.42 8.11,6.55 7.9,7.33 7.76,8.18 7.72,9.08 H 5.85 a 5.9,5.9 0 0 1 1.1,-2.96 z m 7.6,0.66 c 0.19,0.7 0.32,1.48 0.36,2.3 H 12.3 V 7.04 C 13.1,7.01 13.84,6.93 14.53,6.78 Z M 9.08,6.8 c 0.7,0.14 1.45,0.22 2.23,0.24 V 9.08 H 8.72 C 8.76,8.26 8.89,7.48 9.08,6.8 Z m -3.23,3.28 h 1.87 a 11,11 0 0 0 0.41,2.6 c -0.4,0.11 -0.8,0.25 -1.14,0.41 A 5.9,5.9 0 0 1 5.85,10.08 Z m 2.87,0 h 2.59 v 2.1 C 10.53,12.21 9.79,12.29 9.1,12.43 8.9,11.73 8.76,10.93 8.72,10.08 Z m 3.59,0 h 2.59 c -0.04,0.85 -0.18,1.65 -0.39,2.36 -0.68,-0.14 -1.43,-0.22 -2.2,-0.25 z m 3.58,0 h 1.88 a 5.9,5.9 0 0 1 -1.15,3.04 c -0.35,-0.17 -0.73,-0.3 -1.14,-0.43 0.23,-0.8 0.38,-1.68 0.41,-2.61 z m -4.58,3.1 v 2.27 C 10.73,15.25 10.17,14.74 9.7,13.9 9.6,13.74 9.52,13.56 9.44,13.38 c 0.59,-0.11 1.21,-0.18 1.87,-0.2 z m 1,0 c 0.65,0.03 1.28,0.1 1.86,0.2 -0.08,0.19 -0.16,0.36 -0.25,0.52 -0.47,0.84 -1.03,1.36 -1.61,1.55 z m -3.85,0.43 a 7.5,7.5 0 0 0 0.71,1.3 5.97,5.97 0 0 1 -1.49,-1.03 c 0.24,-0.1 0.5,-0.19 0.78,-0.27 z m 6.7,0.02 c 0.27,0.08 0.52,0.17 0.76,0.27 -0.43,0.41 -0.93,0.76 -1.47,1.02 a 5.9,5.9 0 0 0 0.7,-1.3 z"
     id="path4"
     inkscape:connector-curvature="0"
     style="fill:#ffffff;fill-rule:evenodd" />
</svg>
